X:1
T:Title
%%score { ( 1 4 ) | ( 2 3 ) }
L:1/8
M:6/8
K:D
V:1 treble nm="Grand Piano"
V:4 treble 
V:2 bass 
V:3 bass 
V:1
 z3 z2[Q:1/4=95] [FA] | [FA]2 [FA] [DF]2 [GB] | [FA]2 [FA] F2 d | c2 B [CEG]2 [CGB] | %4
[M:5/8] [DFA]3 [A,DF]2 |[M:1/8] [A,DF] |[M:3/4] [A,EG]2 [A,EG] [A,CE]2 [CGB] | %7
 [FA]2 [FA] [DF]2 [Fd] | [Ec]d cB cB |[M:5/8] A-A- A3 |[M:1/8] A |[M:3/4] z2 z d3 | %12
 [DBd][DAc] [DGB] [DFA]2 [DFA] | [DFA][A,EG] [A,^DF] [A,EG]2 [CGB] | [GB][FA] [=F^G] [^FA]2 [FA] | %15
 BB B [^Ge]2 d | cc c d3 |[M:1/8] D |[M:3/4] EF GF Ad |[M:5/8] [Gc][GB][Gc] [Fd]2 |] %20
V:2
 z3 z2 [D,D] | [D,D]2 [D,D] [D,A,]2 [D,D] | [D,D]2 [D,D] [D,A,D]2 [F,A,D] | %3
 [A,E]2 [A,G][K:bass] A,,2 A,, |[M:5/8] D,3 D,2 |[M:1/8] D, |[M:3/4] A,,2 A,, A,,2 A,, | %7
 [D,D]2 [D,D] [D,A,]2 [D,A,] | z F [E,A,E]D E[E,^G,D] |[M:5/8][K:treble] [A,C]-[A,C]- [A,C]3 | %10
[M:1/8] [A,G] |[M:3/4][K:bass] [D,A,]2 [D,A,] [D,A,]2 F, | G,G, G, D,2 D, | A,,A,, A,, A,,2 A,, | %14
 [D,D][D,D] [D,D] [D,D]2 [D,D] | [G,DG][G,DG] [G,DG][K:bass] [E,D]2 [^G,B,E] | %16
 [A,E][A,E] [G,A,E] [F,A,D]3 |[M:1/8] [F,A,] | %18
[M:3/4][K:treble] [G,B,D][G,B,D] [G,B,E][A,D] [A,DF][A,F] | %19
[M:5/8][K:bass] [A,,A,][A,,A,][A,,A,] [D,A,]2 |] %20
V:3
 x6 | x6 | x6 | x3[K:bass] x3 |[M:5/8] x5 |[M:1/8] x |[M:3/4] x6 | x6 | [E,A,]2 z .[E,^G,]3 | %9
[M:5/8][K:treble] x5 |[M:1/8] x |[M:3/4][K:bass] x6 | x6 | x6 | x6 | x3[K:bass] x3 | x6 | %17
[M:1/8] x |[M:3/4][K:treble] x6 |[M:5/8][K:bass] x5 |] %20
V:4
 x6 | x6 | x6 | x6 |[M:5/8] x5 |[M:1/8] x |[M:3/4] x6 | x6 | x6 |[M:5/8] x5 |[M:1/8] x | %11
[M:3/4] [Fd]2 [Fd] F2 [DA] | x6 | x6 | x6 | x6 | x6 |[M:1/8] x |[M:3/4] x6 |[M:5/8] x5 |] %20

